packages/kaspersky-hexa-ui-icons/src/iconsSVGs/16/ChromeColor.svg

<svg width="16" height="16" viewBox="0 0 16 16" fill="none" xmlns="http://www.w3.org/2000/svg">
<g clip-path="url(#clip0_21654_2218)">
<path d="M8.00036 11.6665C10.0254 11.6665 11.6673 10.0249 11.6673 7.99954C11.6673 5.97422 10.0257 4.33259 8.00036 4.33259C5.97504 4.33259 4.33341 5.97422 4.33341 7.99954C4.33341 10.0249 5.97504 11.6665 8.00036 11.6665Z" fill="white"/>
<path d="M4.82455 9.83362L1.64959 4.33435C1.00579 5.44912 0.666748 6.71369 0.666748 8.00101C0.666748 9.28833 1.0055 10.5529 1.64931 11.6677C2.29311 12.7825 3.21892 13.708 4.33399 14.3515C5.44905 14.995 6.71362 15.3335 8.00094 15.3332L11.1759 9.83362C10.8544 10.3913 10.3915 10.8536 9.83413 11.1757C9.27674 11.4977 8.64416 11.6665 8.00036 11.6665C7.35655 11.6665 6.72456 11.498 6.16689 11.1763C5.60921 10.8545 5.14631 10.3913 4.82455 9.83362Z" fill="url(#paint0_linear_21654_2218)"/>
<path d="M11.1759 9.83362L8.00094 15.3332C9.28826 15.3335 10.5526 14.9944 11.6673 14.3506C12.7821 13.7071 13.7079 12.7813 14.3514 11.6665C14.9949 10.5518 15.3337 9.2869 15.3334 7.99958C15.3331 6.71226 14.9941 5.44769 14.35 4.3332L8.00036 4.33259L7.99922 4.33378C8.64303 4.33349 9.2756 4.50258 9.83299 4.82434C10.3907 5.1461 10.8536 5.609 11.1756 6.16639C11.4977 6.72378 11.6673 7.35573 11.6673 7.99954C11.6676 8.64306 11.4979 9.27595 11.1759 9.83362Z" fill="url(#paint1_linear_21654_2218)"/>
<path d="M8.00037 10.9032C9.60369 10.9032 10.9034 9.60347 10.9034 8.00015C10.9034 6.39683 9.60369 5.09712 8.00037 5.09712C6.39705 5.09712 5.09735 6.39683 5.09735 8.00015C5.09735 9.60347 6.39705 10.9032 8.00037 10.9032Z" fill="#1A73E8"/>
<path d="M8.00036 4.33259L14.35 4.3332C13.7065 3.21814 12.7812 2.29258 11.6665 1.64906C10.5517 1.00526 9.28711 0.666504 7.99979 0.666504C6.71247 0.666504 5.4479 1.00555 4.33312 1.64935C3.21835 2.29316 2.29282 3.21957 1.64959 4.33435L4.82455 9.83362L4.82541 9.83417C4.50337 9.27678 4.33341 8.6445 4.33341 8.0007C4.33341 7.35689 4.5025 6.72432 4.82426 6.16693C5.14602 5.60925 5.60892 5.14635 6.1666 4.82459C6.72399 4.50254 7.35655 4.3323 8.00036 4.33259Z" fill="url(#paint2_linear_21654_2218)"/>
</g>
<defs>
<linearGradient id="paint0_linear_21654_2218" x1="12.0094" y1="14.7224" x2="3.7382" y2="-0.271243" gradientUnits="userSpaceOnUse">
<stop stop-color="#1E8E3E"/>
<stop offset="1" stop-color="#34A853"/>
</linearGradient>
<linearGradient id="paint1_linear_21654_2218" x1="-1.47037" y1="15.3592" x2="5.08582" y2="-1.67185" gradientUnits="userSpaceOnUse">
<stop stop-color="#FCC934"/>
<stop offset="1" stop-color="#FBBC04"/>
</linearGradient>
<linearGradient id="paint2_linear_21654_2218" x1="1.64962" y1="5.25033" x2="14.3505" y2="5.25033" gradientUnits="userSpaceOnUse">
<stop stop-color="#D93025"/>
<stop offset="1" stop-color="#EA4335"/>
</linearGradient>
<clipPath id="clip0_21654_2218">
<rect width="16" height="16" fill="white"/>
</clipPath>
</defs>
</svg>

<svg xmlns="http://www.w3.org/2000/svg" width="16" height="16" fill="none" viewBox="0 0 16 16"><g clip-path="url(#a)"><path fill="#fff" d="M8.0004 11.6665c2.025 0 3.6669-1.6416 3.6669-3.667s-1.6416-3.667-3.667-3.667-3.6669 1.6417-3.6669 3.667c0 2.0254 1.6416 3.667 3.667 3.667"/><path fill="url(#b)" d="m4.8246 9.8336-3.175-5.4993A7.3317 7.3317 0 0 0 4.334 14.3516a7.33 7.33 0 0 0 3.667.9817l3.1749-5.4996a3.664 3.664 0 0 1-3.1755 1.8329 3.67 3.67 0 0 1-1.8335-.4902 3.664 3.664 0 0 1-1.3423-1.3427"/><path fill="url(#c)" d="m11.1759 9.8336-3.175 5.4996a7.327 7.327 0 0 0 3.6664-.9826 7.331 7.331 0 0 0 3.6661-6.351 7.33 7.33 0 0 0-.9834-3.6664l-6.3496-.0006-.0012.0012a3.6667 3.6667 0 0 1 3.1767 5.4998"/><path fill="#1a73e8" d="M8.0004 10.9032c1.6033 0 2.903-1.2997 2.903-2.903s-1.2997-2.903-2.903-2.903-2.903 1.2996-2.903 2.903 1.2996 2.903 2.903 2.903"/><path fill="url(#d)" d="m8.0004 4.3326 6.3496.0006a7.3317 7.3317 0 0 0-12.7004.0011l3.175 5.4993.0008.0006a3.665 3.665 0 0 1-.492-1.8335c0-.6438.1691-1.2764.4909-1.8338a3.663 3.663 0 0 1 1.3423-1.3423 3.663 3.663 0 0 1 1.8338-.492"/></g><defs><linearGradient id="b" x1="12" x2="4" y1="15" y2="0" gradientUnits="userSpaceOnUse"><stop stop-color="#1e8e3e"/><stop offset="1" stop-color="#34a853"/></linearGradient><linearGradient id="c" x1="-1" x2="5" y1="15" y2="-2" gradientUnits="userSpaceOnUse"><stop stop-color="#fcc934"/><stop offset="1" stop-color="#fbbc04"/></linearGradient><linearGradient id="d" x1="2" x2="14" y1="5" y2="5" gradientUnits="userSpaceOnUse"><stop stop-color="#d93025"/><stop offset="1" stop-color="#ea4335"/></linearGradient><clipPath id="a"><path fill="#fff" d="M0 0h16v16H0z"/></clipPath></defs></svg>
